X: 1
T: the Lad's Awa'
R: reel
B: Birmingham 1973 #6
Z: 1997 by John Chambers <jc:trillian.mit.edu>
N:
M: C|
L: 1/8
K: G
ba \
| "G"g2dc "Em"BGGB | "Am"AEEA "D7"Fdef \
| "G"g2dc "Em"BGGB | "Am"AE"D7"EF "G"G2ba |
| "G"g2dc "Em"BGGB | "Am"ABAG "D7"Fedc \
| "G"B2cd "C"egfe | "D7"dcBA "G"G2 ||
|: Bd \
| "C"e2ce "G"d2Bd | "D7"cAAc "G"Bdef \
| "C"g2eg "Bm"f2df | "A7"egfe "D7"dcBA |
| "G"G2GA "Em"BABc | "Am"A2AB "D7"cdef \
| "G"g2dc "Em"BGGB | "Am"AE"D7"EF "G"G2 :|
